!!!OTL: IM KREISE FROHER KLUGER ZECHER
!!!ARE: Europa, Mitteleuropa, Deutschland
!!!SCT: B0320
!!!YEM: Copyright 1995, estate of Helmut Schaffrath.
**kern
*ICvox
*Ivox
*M4/4
*k[]
*C:
{8G
8E
8F
=1
4.G
8G
4.e
8c
=2
8B
8d
4c
8r}
{8c
8B
8c
=3
4.d
8B
8A
8G
8A
8B
=4
2G
8r}
{8G
8D
8E
=5
4.F
8F
8F
8A
8G
8F
=6
8F
8E
4.E}
{8E
8D
8E
=7
4.F
8F
8F
8A
8G
8F
=8
4F
4E
8r}
{8G
8G
8G
=9
4.e
8c
4.d
8B
=10
2c
8r}
{8c
16d
16c
16B
16A
=11
4.G
8G
4G
8A
8B
=12
2c
8r}
{8G
8G
8G
=13
4.e
8c
4.d
8B
=14
2c
8r}
{8c
16d
16c
16B
16A
=15
4.G
8G
4G
8A
8B
=16
2c
8r}
==
!!!AGN: Geselligkeits -, Trink - Lied, Freude
!!!ONB: ESAC (Essen Associative Code) Database: BOEHME
!!!AMT: simple quadruple
!!!AIN: vox
!!!EED: Helmut Schaffrath
!!!EEV: 1.0
*-
